X:1
T:James Gibb editions
T:Praise, O praise our God and King - Barnby
%%score [ ( 1 2 ) ( 3 4 ) ]
L:1/8
Q:1/4=80
M:4/4
K:E
V:1 treble nm="Midi_74"
V:2 treble 
V:3 bass nm="Midi_74"
V:4 bass 
V:1
"^77. 77""^Praise, O praise our God and King""^Joseph Barnby\n(1838-96)""^John Milton\n(1608-74)"!f! B2 d2 e2 G2 | %1
 c2 BA G4 || G2 ^A2 B2 cd | c2 c2 B4 ||[M:4/4] B2 B2 =d2 c2 | B2 AG A4 || c2 c2 B2 E2 | F2 F2 E4 || %8
 A4 G4 |] %9
V:2
 G2 F2 E2 E2 | E2 D2 E4 || G2 F2 F2 ED | G2 FE D4 ||[M:4/4] D2 E2 F2 E2 | =D2 C2 C4 || %6
 E2 F2 B,2 E2 | E2 D2 E4 || E4 E4 |] %9
V:3
 B,2 B,A, G,2 G,2 | F,2 B,2 B,4 || B,2 C2 B,2 B,2 | B,2 ^A,2 B,4 || %4
[M:4/4]"^1 Praise, O praise our God and King;\nhymns of adoration sing:\n\nRefrain:\nFor his mercies still endure\never faithful, ever sure.\n\n2 Praise him that he made the sun\nday by day his course to run: [Refrain]\n\n3 And the silver moon by night,\nshining with her gentle light: [Refrain]\n\n4 Praise him that he gave the rain\nto mature the swelling grain: [Refrain]" B,2 B,2 =D2 C2 | %5
 B,2 A,G, A,4 || %6
 A,2"^5 And hath bid the fruitful field\ncrops of precious increase yield: [Refrain]\n\n6 Praise him for our harvest-store;\nhe hath filled the garner-floor: [Refrain]\n\n7 And for richer food than this,\npledge of everlasting bliss: [Refrain]\n\n8 Glory to our bounteous King;\nglory let creation sing:\nGlory to the Father, Son,\nand blest Spirit, Three in One." A,2 G,2 A,"^rall."G, | %7
 C2 B,A, G,4 || C4 B,4 |] %9
V:4
 E,2 B,,2 C,2 B,,2 | A,,2 B,,2 E,4 || E,2 E,2 D,2 G,F, | E,2 F,2 B,,4 || %4
[M:4/4] [B,,F,]2 [E,G,]2 [=D,A,]2 [A,,A,]2 | [B,,F,]2 [C,^E,]2 F,4 || C,2 D,2 E,2 C,B,, | %7
 A,,2 B,,2 E,4 || A,,4 E,4 |] %9

